image-viewer/icons/image-broken.svg

<svg xmlns="http://www.w3.org/2000/svg" width="24" height="24"><path d="M21 5v6.59l-3-3.01-4 4.01-4-4-4 4-3-3.01V5a2 2 0 0 1 2-2h14a2 2 0 0 1 2 2m-3 6.42l3 3.01V19a2 2 0 0 1-2 2H5a2 2 0 0 1-2-2v-6.58l3 2.99 4-4 4 4"/></svg>

<svg xmlns="http://www.w3.org/2000/svg"
  xmlns:xlink="http://www.w3.org/1999/xlink" version="1.1" width="24" height="24" viewBox="0 0 24 24">
  <path d="M21,5V11.59L18,8.58L14,12.59L10,8.59L6,12.59L3,9.58V5A2,2 0 0,1 5,3H19A2,2 0 0,1 21,5M18,11.42L21,14.43V19A2,2 0 0,1 19,21H5A2,2 0 0,1 3,19V12.42L6,15.41L10,11.41L14,15.41" />
</svg>
